outputs/icons/communication/outgoing_call_round.svg

<svg xmlns="http://www.w3.org/2000/svg" width="1200" height="1200" fill="none"><path fill="#000" d="M659.155 540.85a31.256 31.256 0 0 1-6.775-34.06 31.25 31.25 0 0 1 6.775-10.14l334.15-334.15h-262.05a31.252 31.252 0 0 1-22.095-53.347A31.25 31.25 0 0 1 731.255 100h337.5c17.25 0 31.25 14 31.25 31.25v337.5a31.248 31.248 0 0 1-53.345 22.097 31.25 31.25 0 0 1-9.155-22.097V206.7l-334.15 334.15a31.15 31.15 0 0 1-10.14 6.775 31.26 31.26 0 0 1-23.92 0 31.3 31.3 0 0 1-10.14-6.775"/><path fill="#000" d="m648.285 885.955 130.61-129.57c11.92-11.925 29.54-17.105 46.645-13.48l190.215 37.835c23.84 4.665 41.465 25.915 41.465 50.795v215.09c0 29.025-24.36 53.385-53.385 51.83-149.79-8.81-290.245-54.94-413.08-125.945-140.977-81.89-258.63-199.025-340.52-340.52C178.71 509.155 133.101 368.698 124.29 218.912c-1.556-29.025 22.804-53.384 51.829-53.384H391.21c24.879 0 46.129 17.622 50.794 41.463l38.871 190.732c3.111 17.104-2.072 34.207-13.993 46.647L337.308 574.98a836.7 836.7 0 0 0 310.977 310.975"/></svg>

<svg width="1200" height="1200" viewBox="0 0 1200 1200" fill="none" xmlns="http://www.w3.org/2000/svg"><path d="M659.155 540.85C656.255 537.95 653.95 534.505 652.38 530.71C650.81 526.92 650 522.855 650 518.75C650 514.645 650.81 510.58 652.38 506.79C653.95 502.995 656.255 499.552 659.155 496.65L993.305 162.5H731.255C722.97 162.5 715.02 159.207 709.16 153.347C703.3 147.487 700.005 139.538 700.005 131.25C700.005 122.962 703.3 115.013 709.16 109.153C715.02 103.293 722.97 100 731.255 100H1068.755C1086.005 100 1100.005 114 1100.005 131.25V468.75C1100.005 477.038 1096.715 484.987 1090.855 490.847C1084.99 496.708 1077.045 500 1068.755 500C1060.47 500 1052.52 496.708 1046.66 490.847C1040.8 484.987 1037.505 477.038 1037.505 468.75V206.7L703.355 540.85C700.455 543.755 697.01 546.055 693.215 547.625C689.425 549.195 685.36 550.005 681.255 550.005C677.15 550.005 673.085 549.195 669.295 547.625C665.505 546.055 662.06 543.755 659.155 540.85Z" fill="black"/><path d="M648.285 885.955L778.895 756.385C790.815 744.46 808.435 739.28 825.54 742.905L1015.755 780.74C1039.595 785.405 1057.22 806.655 1057.22 831.535V1046.625C1057.22 1075.65 1032.86 1100.01 1003.835 1098.455C854.045 1089.645 713.59 1043.515 590.755 972.51C449.778 890.62 332.125 773.485 250.235 631.99C178.71 509.155 133.101 368.698 124.29 218.912C122.734 189.887 147.094 165.528 176.119 165.528H391.21C416.089 165.528 437.339 183.15 442.004 206.991L480.875 397.723C483.986 414.827 478.803 431.93 466.882 444.37L337.308 574.98C411.424 704.555 518.71 811.84 648.285 885.955Z" fill="black"/></svg>
